X: 1681
T: Another Time Around The Sun
R: reel
M: 4/4
K: Amajor
|:a2g2 f2ec|B2Bc BAEF|ABce feBc|efge fece|
a2g2 f2ec|B2Bc BAEF|AcBA BAFE|1 F4 efge:|2 F4 FFE2||
|:F2c2 d2cB-|BBBc BAEF|ABce feBc|efec BAFE|
F2c2 d2cB-|BBBc BAEF|AcBA BAFE|1 F4 FFE2:|2 F4 efge||

